svg/mono/paypal.svg

<svg height="471" viewBox="0 0 750 471" width="750" xmlns="http://www.w3.org/2000/svg"><path d="m697.115385 0c29.158653 0 52.884615 23.1955749 52.884615 51.7065868v367.5868262c0 28.511012-23.725962 51.706587-52.884615 51.706587h-644.2307696c-29.1605769 0-52.8846154-23.195575-52.8846154-51.706587v-367.5868262c0-28.5110119 23.7240385-51.7065868 52.8846154-51.7065868zm-579.236504 242.191381c17.916337 0 31.979267-5.048403 42.189745-15.155716 10.205702-10.103492 15.314285-24.112929 15.314285-42.034043 0-12.290974-4.013887-21.19756-12.033062-26.721668-8.023951-5.515512-18.492342-8.279954-31.408038-8.279954h-50.0035461c-3.9584827 0-6.1459647 1.980197-6.5614907 5.936769l-20.3130152 127.506319c-.2111063 1.25231.1022099 2.397633.9370829 3.438837.8310522 1.044069 1.8741658 1.56276 3.1245649 1.56276h23.7508962c4.1657682 0 6.45546-1.976376 6.8757622-5.937724l5.6244079-34.374035c.2053749-1.665925.9380381-3.020445 2.1884372-4.063558 1.2484886-1.041204 2.8122037-1.723239 4.6873247-2.034645 1.875121-.309495 3.643256-.465198 5.313002-.465198 1.66497 0 3.644212.105075 5.93868.312361 2.289692.20824 3.750242.309495 4.374964.309495zm124.227007-17.96983c3.851496 3.438836 5.781066 8.179654 5.781066 14.221498 0 7.708725-2.656501 14.117379-7.969504 19.216409-5.313957 5.111448-11.828641 7.658097-19.531635 7.658097-6.045665 0-10.890603-1.664015-14.532904-4.999686-3.648988-3.328029-5.470616-7.912189-5.470616-13.751524 0-7.702993 2.603964-14.218633 7.814756-19.53068 5.204106-5.313002 11.664342-7.969503 19.374977-7.969503 5.831693 0 10.675676 1.719418 14.53386 5.155389zm42.655899-23.282833c.205374-1.250399-.106031-2.394767-.936128-3.436926-.834873-1.040248-1.875121-1.56276-3.12361-1.56276h-23.750896c-2.9211 0-4.68828 3.438837-5.313957 10.314599-5.625363-8.330581-15.522525-12.502081-29.689576-12.502081-15.000968 0-27.762872 5.626319-38.2838 16.877045-10.52284 11.250726-15.781394 24.483559-15.781394 39.690858 0 12.294795 3.59454 22.085926 10.782663 29.375304 7.188123 7.296064 16.821641 10.938365 28.90724 10.938365 5.830738 0 11.876403-1.25231 18.125533-3.750242 6.250085-2.499843 11.250726-5.832649 15.000968-10.000327-.835828 2.498888-1.250399 4.687325-1.250399 6.560535 0 3.337582 1.353565 4.999686 4.062603 4.999686h21.563415c3.954661 0 6.250085-1.976375 6.874807-5.937724zm40.942212 119.693475c2.290647 0 4.163857-1.038338 5.626318-3.122655l79.692166-115.009015c.414571-.413615.622812-1.139592.622812-2.187482 0-1.039293-.420303-2.030824-1.247534-2.966951-.835828-.937083-1.774822-1.408013-2.813159-1.408013h-24.064212c-2.296379 0-4.170545 1.046935-5.625364 3.124565l-33.126501 48.755057-13.751524-46.878025c-1.045024-3.330896-3.335671-5.001597-6.873852-5.001597h-23.442356c-1.044069 0-1.981152.469974-2.809338 1.408013-.835829.936127-1.250399 1.928614-1.250399 2.966951 0 .420302 2.031779 6.563401 6.093426 18.438849 4.061648 11.877359 8.436612 24.6918 13.123937 38.443325 4.68828 13.747703 7.13463 21.044723 7.343826 21.871954-17.085285 23.337281-25.625062 35.837451-25.625062 37.501465 0 2.71095 1.352609 4.063559 4.062603 4.063559zm147.191747-78.440812c17.919203 0 31.979267-5.048403 42.191656-15.155716 10.207612-10.103492 15.313329-24.112929 15.313329-42.034043.000955-12.290974-4.011976-21.19756-12.032106-26.721668-8.022041-5.515512-18.489477-8.279954-31.407084-8.279954h-49.690229c-4.169589 0-6.462147 1.980197-6.875762 5.936769l-20.31206 127.506319c-.212062 1.25231.100299 2.397633.936127 3.438837.827232 1.044069 1.873211 1.56276 3.124565 1.56276h25.625062c2.498888 0 4.164813-1.352609 4.999686-4.061648l5.627274-36.250111c.20633-1.665925.935172-3.020445 2.187482-4.063558 1.249444-1.041204 2.810293-1.723239 4.687325-2.034645 1.874165-.309495 3.643256-.465198 5.313957-.465198 1.66497 0 3.643256.105075 5.935814.312361 2.290647.20824 3.754063.309495 4.374964.309495zm124.228917-17.96983c3.851497 3.438836 5.782021 8.179654 5.782976 14.221498-.000955 7.499529-2.657456 13.8566-7.970458 19.061661-5.312047 5.208882-11.717835 7.812845-19.219274 7.812845-6.04471 0-10.936455-1.664015-14.688607-4.999686-3.751198-3.328029-5.626319-7.912189-5.626319-13.751524 0-7.702993 2.603964-14.218633 7.813801-19.53068 5.20315-5.313002 11.667207-7.969503 19.376887-7.969503 5.827872 0 10.672811 1.719418 14.530994 5.155389zm42.658765-23.282833c.205375-1.250399-.106986-2.394767-.939949-3.436926-.835828-1.040248-1.874166-1.56276-3.124565-1.56276h-23.752807c-2.918234 0-4.685414 3.438837-5.309181 10.314599-5.423809-8.330581-15.313329-12.502081-29.691486-12.502081-15.000968 0-27.764782 5.626319-38.282845 16.877045-10.522839 11.250726-15.781393 24.483559-15.781393 39.690858 0 12.294795 3.593584 22.085926 10.779797 29.375304 7.189078 7.296064 16.824506 10.938365 28.911061 10.938365 6.039934 0 12.186854-1.25231 18.436939-3.750242 6.25104-2.499843 11.142784-5.832649 14.690517-10.000327 0 .20824-.212061 1.144368-.625677 2.810293-.420302 1.669746-.625677 2.923011-.625677 3.750242 0 3.337582 1.350698 4.999686 4.063558 4.999686h21.565325c3.952751 0 6.248174-1.976375 6.871941-5.937724zm55.316548-46.253304h-.000956v-.309495c-.000955-2.916324-1.359295-4.374964-4.065468-4.374964h-23.124264c-2.297334 0-3.649943 1.146279-4.063558 3.438837l-20.314926 130.006162-.313316.624722c0 1.045979.418392 2.031779 1.253265 2.968862.829141.937083 1.875121 1.406102 3.123609 1.406102h20.628242c3.953707 0 6.142144-1.976376 6.563401-5.937724zm-205.638592 27.657797c2.501754 2.187482 3.749287 5.366495 3.750242 9.532263 0 8.751839-2.293512 14.687652-6.874807 17.815083-4.585115 3.124565-11.459922 4.686369-20.626331 4.686369l-10.001282.312361 5.313957-33.439817c.412661-2.289692 1.766225-3.435971 4.061648-3.435971h5.623453c4.582249 0 8.228371.208241 10.941231.623767 2.704262.419347 5.312046 1.718463 7.811889 3.905945zm-355.641587-.936128c3.748332 2.397633 4.998731 7.451767 3.747377 15.158582-1.045024 7.293198-3.750242 12.082733-8.125206 14.375291-4.375919 2.295423-10.626004 3.436926-18.750255 3.436926l-10.313644.312361 5.313958-33.439818c.415526-2.289692 1.76909-3.435971 4.061648-3.435971h5.940589c8.329626 0 14.375291 1.200727 18.125533 3.592629z" fill="#393939"/></svg>

<svg width="750" height="471" viewBox="0 0 750 471" version="1.1" xmlns="http://www.w3.org/2000/svg" xmlns:xlink="http://www.w3.org/1999/xlink">
    <!-- Generator: Sketch 48.2 (47327) - http://www.bohemiancoding.com/sketch -->
    <desc>Created with Sketch.</desc>
    <defs></defs>
    <g id="Page-1" stroke="none" stroke-width="1" fill="none" fill-rule="evenodd">
        <path d="M697.115385,0 C726.274038,0 750,23.1955749 750,51.7065868 L750,419.293413 C750,447.804425 726.274038,471 697.115385,471 L52.8846154,471 C23.7240385,471 0,447.804425 0,419.293413 L0,51.7065868 C0,23.1955749 23.7240385,0 52.8846154,0 L697.115385,0 Z M117.878881,242.191381 C135.795218,242.191381 149.858148,237.142978 160.068626,227.035665 C170.274328,216.932173 175.382911,202.922736 175.382911,185.001622 C175.382911,172.710648 171.369024,163.804062 163.349849,158.279954 C155.325898,152.764442 144.857507,150 131.941811,150 L81.9382649,150 C77.9797822,150 75.7923002,151.980197 75.3767742,155.936769 L55.063759,283.443088 C54.8526527,284.695398 55.1659689,285.840721 56.0008419,286.881925 C56.8318941,287.925994 57.8750077,288.444685 59.1254068,288.444685 L82.876303,288.444685 C87.0420712,288.444685 89.331763,286.468309 89.7520652,282.506961 L95.3764731,248.132926 C95.581848,246.467001 96.3145112,245.112481 97.5649103,244.069368 C98.8133989,243.028164 100.377114,242.346129 102.252235,242.034723 C104.127356,241.725228 105.895491,241.569525 107.565237,241.569525 C109.230207,241.569525 111.209449,241.6746 113.503917,241.881886 C115.793609,242.090126 117.254159,242.191381 117.878881,242.191381 Z M242.105888,224.221551 C245.957384,227.660387 247.886954,232.401205 247.886954,238.443049 C247.886954,246.151774 245.230453,252.560428 239.91745,257.659458 C234.603493,262.770906 228.088809,265.317555 220.385815,265.317555 C214.34015,265.317555 209.495212,263.65354 205.852911,260.317869 C202.203923,256.98984 200.382295,252.40568 200.382295,246.566345 C200.382295,238.863352 202.986259,232.347712 208.197051,227.035665 C213.401157,221.722663 219.861393,219.066162 227.572028,219.066162 C233.403721,219.066162 238.247704,220.78558 242.105888,224.221551 Z M284.761787,200.938718 C284.967161,199.688319 284.655756,198.543951 283.825659,197.501792 C282.990786,196.461544 281.950538,195.939032 280.702049,195.939032 L256.951153,195.939032 C254.030053,195.939032 252.262873,199.377869 251.637196,206.253631 C246.011833,197.92305 236.114671,193.75155 221.94762,193.75155 C206.946652,193.75155 194.184748,199.377869 183.66382,210.628595 C173.14098,221.879321 167.882426,235.112154 167.882426,250.319453 C167.882426,262.614248 171.476966,272.405379 178.665089,279.694757 C185.853212,286.990821 195.48673,290.633122 207.572329,290.633122 C213.403067,290.633122 219.448732,289.380812 225.697862,286.88288 C231.947947,284.383037 236.948588,281.050231 240.69883,276.882553 C239.863002,279.381441 239.448431,281.569878 239.448431,283.443088 C239.448431,286.78067 240.801996,288.442774 243.511034,288.442774 L265.074449,288.442774 C269.02911,288.442774 271.324534,286.466399 271.949256,282.50505 L284.761787,200.938718 Z M325.703999,320.632193 C327.994646,320.632193 329.867856,319.593855 331.330317,317.509538 L411.022483,202.500523 C411.437054,202.086908 411.645295,201.360931 411.645295,200.313041 C411.645295,199.273748 411.224992,198.282217 410.397761,197.34609 C409.561933,196.409007 408.622939,195.938077 407.584602,195.938077 L383.52039,195.938077 C381.224011,195.938077 379.349845,196.985012 377.895026,199.062642 L344.768525,247.817699 L331.017001,200.939674 C329.971977,197.608778 327.68133,195.938077 324.143149,195.938077 L300.700793,195.938077 C299.656724,195.938077 298.719641,196.408051 297.891455,197.34609 C297.055626,198.282217 296.641056,199.274704 296.641056,200.313041 C296.641056,200.733343 298.672835,206.876442 302.734482,218.75189 C306.79613,230.629249 311.171094,243.44369 315.858419,257.195215 C320.546699,270.942918 322.993049,278.239938 323.202245,279.067169 C306.11696,302.40445 297.577183,314.90462 297.577183,316.568634 C297.577183,319.279584 298.929792,320.632193 301.639786,320.632193 L325.703999,320.632193 Z M472.895746,242.191381 C490.814949,242.191381 504.875013,237.142978 515.087402,227.035665 C525.295014,216.932173 530.400731,202.922736 530.400731,185.001622 C530.401686,172.710648 526.388755,163.804062 518.368625,158.279954 C510.346584,152.764442 499.879148,150 486.961541,150 L437.271312,150 C433.101723,150 430.809165,151.980197 430.39555,155.936769 L410.08349,283.443088 C409.871428,284.695398 410.183789,285.840721 411.019617,286.881925 C411.846849,287.925994 412.892828,288.444685 414.144182,288.444685 L439.769244,288.444685 C442.268132,288.444685 443.934057,287.092076 444.76893,284.383037 L450.396204,248.132926 C450.602534,246.467001 451.331376,245.112481 452.583686,244.069368 C453.83313,243.028164 455.393979,242.346129 457.271011,242.034723 C459.145176,241.725228 460.914267,241.569525 462.584968,241.569525 C464.249938,241.569525 466.228224,241.6746 468.520782,241.881886 C470.811429,242.090126 472.274845,242.191381 472.895746,242.191381 Z M597.124663,224.221551 C600.97616,227.660387 602.906684,232.401205 602.907639,238.443049 C602.906684,245.942578 600.250183,252.299649 594.937181,257.50471 C589.625134,262.713592 583.219346,265.317555 575.717907,265.317555 C569.673197,265.317555 564.781452,263.65354 561.0293,260.317869 C557.278102,256.98984 555.402981,252.40568 555.402981,246.566345 C555.402981,238.863352 558.006945,232.347712 563.216782,227.035665 C568.419932,221.722663 574.883989,219.066162 582.593669,219.066162 C588.421541,219.066162 593.26648,220.78558 597.124663,224.221551 Z M639.783428,200.938718 C639.988803,199.688319 639.676442,198.543951 638.843479,197.501792 C638.007651,196.461544 636.969313,195.939032 635.718914,195.939032 L611.966107,195.939032 C609.047873,195.939032 607.280693,199.377869 606.656926,206.253631 C601.233117,197.92305 591.343597,193.75155 576.96544,193.75155 C561.964472,193.75155 549.200658,199.377869 538.682595,210.628595 C528.159756,221.879321 522.901202,235.112154 522.901202,250.319453 C522.901202,262.614248 526.494786,272.405379 533.680999,279.694757 C540.870077,286.990821 550.505505,290.633122 562.59206,290.633122 C568.631994,290.633122 574.778914,289.380812 581.028999,286.88288 C587.280039,284.383037 592.171783,281.050231 595.719516,276.882553 C595.719516,277.090793 595.507455,278.026921 595.093839,279.692846 C594.673537,281.362592 594.468162,282.615857 594.468162,283.443088 C594.468162,286.78067 595.81886,288.442774 598.53172,288.442774 L620.097045,288.442774 C624.049796,288.442774 626.345219,286.466399 626.968986,282.50505 L639.783428,200.938718 Z M695.099976,154.685414 L695.09902,154.685414 L695.09902,154.375919 C695.098065,151.459595 693.739725,150.000955 691.033552,150.000955 L667.909288,150.000955 C665.611954,150.000955 664.259345,151.147234 663.84573,153.439792 L643.530804,283.445954 L643.217488,284.070676 C643.217488,285.116655 643.63588,286.102455 644.470753,287.039538 C645.299894,287.976621 646.345874,288.44564 647.594362,288.44564 L668.222604,288.44564 C672.176311,288.44564 674.364748,286.469264 674.786005,282.507916 L695.099976,154.685414 Z M489.461384,182.343211 C491.963138,184.530693 493.210671,187.709706 493.211626,191.875474 C493.211626,200.627313 490.918114,206.563126 486.336819,209.690557 C481.751704,212.815122 474.876897,214.376926 465.710488,214.376926 L455.709206,214.689287 L461.023163,181.24947 C461.435824,178.959778 462.789388,177.813499 465.084811,177.813499 L470.708264,177.813499 C475.290513,177.813499 478.936635,178.02174 481.649495,178.437266 C484.353757,178.856613 486.961541,180.155729 489.461384,182.343211 Z M133.819797,181.407083 C137.568129,183.804716 138.818528,188.85885 137.567174,196.565665 C136.52215,203.858863 133.816932,208.648398 129.441968,210.940956 C125.066049,213.236379 118.815964,214.377882 110.691713,214.377882 L100.378069,214.690243 L105.692027,181.250425 C106.107553,178.960733 107.461117,177.814454 109.753675,177.814454 L115.694264,177.814454 C124.02389,177.814454 130.069555,179.015181 133.819797,181.407083 Z" id="Combined-Shape" fill="#393939" fill-rule="nonzero"></path>
    </g>
</svg>
